X: 33899
T: Red Mill, The
R: reel
M: 4/4
K: Adorian
G|E2 AG AEEd|cABG AEEG|D2GF GDDG|BGAF GDDG|
E2 AG AEEd|cABG Ae e2|gedc BGBd|ecdB cA A2:|
G|:A3G AEEA|cABG AEEG|D2 GF GDDG|BGAF GDDG|
E2 AG AEEA|cABG A2 EF|GEDc BGBd|ecdB cA A2:|

